X: 511
T:O'Dwyers Hornpipe with fourth part
M:4/4
L:1/8
S:from Mike Rafferty
R:hornpipe
N:Posted to the woodenflute mailing list May 2002
Z:Tom Madden
K:G
dc|: B2GF GBAG | F2DA D2dc | B2GF G2 (3Bcd | egfa gedc |
B2GF GBAG | F2DA D2dc | B2BG AcAF |1 G2GF G2 dc:|2 G2GF G2ga||
b2bg afd2 | dfaf gfed| eggf gabg | afd^c d2 ga |
b2bg afd2 | dfaf gfed | egfa gedc|1 BGGF G2 ga:|2 BGGF G2Bc|
|: (dc) \| BcAB G2 AG | FGEF D2 dc | BcAB G2 (Bd) | egfa gedc |
| BcAB G2 (AG) | FGEF D2 (dc) | BdBG (3(ABc) AF | G2 G&gt;G G2 :|
dBB2 GBB2 | dBB2 GBB2 | cAA2 FAA2 | cAA2 FAdc |
BGBd edeg | fdfa g2ga | bgfa gedc |1 BGGF G2 Bc:|2 BGGF G4||
<end>
<start>
